icons/src/iphone.gen3.svg

<!--Generator: Apple Native CoreSVG 341-->
<!DOCTYPE svg  PUBLIC '-//W3C//DTD SVG 1.1//EN'  'http://www.w3.org/Graphics/SVG/1.1/DTD/svg11.dtd'>
<svg version="1.1" viewBox="0 0 12.91 20.693" xmlns="http://www.w3.org/2000/svg">
 <rect width="12.91" height="20.693" opacity="0"/>
 <path d="m2.6562 20.674h7.2363c1.5918 0 2.6562-1.0156 2.6562-2.539v-15.596c0-1.5234-1.0644-2.5391-2.6562-2.5391h-7.2363c-1.5918 0-2.6562 1.0156-2.6562 2.5391v15.596c0 1.5234 1.0644 2.539 2.6562 2.539zm0.20508-1.5722c-0.83008 0-1.2891-0.4395-1.2891-1.2207v-15.088c0-0.78125 0.45898-1.2207 1.2891-1.2207h6.8359c0.82033 0 1.2793 0.43945 1.2793 1.2207v15.088c0 0.7812-0.459 1.2207-1.2793 1.2207zm1.3476-0.7129h4.1504c0.26367 0 0.44921-0.1856 0.44921-0.459 0-0.2735-0.18554-0.4492-0.44921-0.4492h-4.1504c-0.26367 0-0.45898 0.1757-0.45898 0.4492 0 0.2734 0.19531 0.459 0.45898 0.459zm0.88868-14.746h2.3633c0.38086 0 0.68359-0.30274 0.68359-0.69336 0-0.38086-0.30273-0.6836-0.68359-0.6836h-2.3633c-0.39063 0-0.69336 0.30274-0.69336 0.6836 0 0.39062 0.30273 0.69336 0.69336 0.69336z" fill="#fff"/>
</svg>

<?xml version="1.0" encoding="UTF-8"?>
<!--Generator: Apple Native CoreSVG 341-->
<!DOCTYPE svg
PUBLIC "-//W3C//DTD SVG 1.1//EN"
       "http://www.w3.org/Graphics/SVG/1.1/DTD/svg11.dtd">
<svg version="1.1" xmlns="http://www.w3.org/2000/svg" xmlns:xlink="http://www.w3.org/1999/xlink" viewBox="0 0 12.9102 20.6934">
 <g>
  <rect height="20.6934" opacity="0" width="12.9102" x="0" y="0"/>
  <path d="M2.65625 20.6738L9.89258 20.6738C11.4844 20.6738 12.5488 19.6582 12.5488 18.1348L12.5488 2.53906C12.5488 1.01562 11.4844 0 9.89258 0L2.65625 0C1.06445 0 0 1.01562 0 2.53906L0 18.1348C0 19.6582 1.06445 20.6738 2.65625 20.6738ZM2.86133 19.1016C2.03125 19.1016 1.57227 18.6621 1.57227 17.8809L1.57227 2.79297C1.57227 2.01172 2.03125 1.57227 2.86133 1.57227L9.69727 1.57227C10.5176 1.57227 10.9766 2.01172 10.9766 2.79297L10.9766 17.8809C10.9766 18.6621 10.5176 19.1016 9.69727 19.1016ZM4.20898 18.3887L8.35938 18.3887C8.62305 18.3887 8.80859 18.2031 8.80859 17.9297C8.80859 17.6562 8.62305 17.4805 8.35938 17.4805L4.20898 17.4805C3.94531 17.4805 3.75 17.6562 3.75 17.9297C3.75 18.2031 3.94531 18.3887 4.20898 18.3887ZM5.09766 3.64258L7.46094 3.64258C7.8418 3.64258 8.14453 3.33984 8.14453 2.94922C8.14453 2.56836 7.8418 2.26562 7.46094 2.26562L5.09766 2.26562C4.70703 2.26562 4.4043 2.56836 4.4043 2.94922C4.4043 3.33984 4.70703 3.64258 5.09766 3.64258Z" fill="white"/>
 </g>
</svg>
